X:3298
T:Concertina Jamboree Polka
R:polka
Z:Martin_Döring, mailto:mdoering@mucl.de
M:2/4
L:1/8
K:D
ff/f/ ff|fd ef|f2 f2|e2>z2|
ee/e/ ee|ec de|f2 d2|d2>z2|
ff/f/ ff|fd ef|g2 f2|e2>z2|
aa/a/ aa|ag fe|d2 c2|d2 e2|
cc/c/ cc|cA Bc|d2 c2|B2>z2|
BB/B/ BB|B^G AB|c2 B2|A2>z2|
cc/c/ cc|cA Bc|d2 c2|B2>z2|
ee/e/ ee|ed cB|A2 B2|Aa ^gg|
ff/f/ ff|fd ef|g2 f2|e2>z2|
ee/e/ ee|ec de|f2 e2|d2>z2|
ff/f/ ff|fd ef|g2 f2|e2>z2|
aa/a/ aa|ag fe|d2 c2|d^g ab||
c'2 b2|a2 g2|zb2 a|zf =f^f|
a2>g2|e2 g2|zb2 (a|a)^g ab|
c'2>b2|a2 g2|zb2 a|zf =f^f|
a2>g2|f>g fe|dc/B/ AB/c/|df dz||
c'2>b2|a2 g2|zb2 a|zf =f^f|
a2>g2|e2 g2|zb2 (a|a)^g ab|
c'2>b2|a2 g2|zb2 a|zf =f^f|
a2>g2|f>g fe|dc/B/ AB/c/|dfdz||


